X:1
T:D Major Samuel Holyoke, 1791
T:Isaac Watts, 1706 God Only Known to Himself 88. 88. (L. M.)
T:Chelsea Transcribed from Harmonia Americana, 1791.
%%score [ 1 2 3 4 ]
L:1/8
Q:1/4=90
M:4/4
K:D
V:1 treble nm="Tr." snm="Tr."
V:2 treble nm="C." snm="C."
V:3 treble-8 nm="T." snm="T."
V:4 bass nm="B." snm="B."
V:1
"^1. Thou sacred       one, al– migh– ty  three,     Great ev-er-las-ting    my  –   ste  – ry,        What lofty numbers shall we frame" d4 d2 d2 | %1
 d2 B2 f2 e2 | d4 z2 d2 | d2 c2 d2 d2 | de ed !fermata!c2 z d | f2 f2 e2 d2 | d2 d2 c3 z | %7
"^1. Equal    to  thy   tremendous name?      Seraphs, the nearest     to the throne,    Begin and speak the great unknown:   At –" d2 c>d d2 e2 | %8
 d2 c2 !fermata![Ad]2 z2 | f2 d>d ed c2 | d2 A2 !fermata!A2 z d | c2 c2 c3 c | %12
 d2 d2 !fermata!d2 z d | %13
"^1.  –tempt the song, wind up your strings  To   notes  untried,  and boundless things." d2 e2 !fermata!f2 c2 | %14
 d>e f>g a3 e | d>e f>e d3 g | f4 e4 | f8 |] %18
V:2
"^2. You,  whose  capacious  powers survey         Largely  beyond our eyes     of      clay:       Yet  what  a narrow  portion too" F4 D2 D>E | %1
 F2 F>G A2 G2 | F4 z2 F2 | F2 F2 F2 F2 | BA ^G2 !fermata!A2 z A | A2 A2 A2 F2 | B2 B2 A3 z | %7
"^2. Is seen or known or thought, by you?   How  flat  your  highest  praises  fall        Be–low   th'im–mense o–ri–gi–nal!     Weak" A2 A>A B2 B2 | %8
 A2 G2 !fermata!F2 z2 | F2 F>F E2 E2 | F2 F2 !fermata!F2 z F | E2 E2 E3 E | A2 A2 !fermata!A2 z F | %13
"^2. creatures we, that  strive  in  vain    To       reach   an      un  –  cre  – a  –  ted    strain!" G2 [Gc]2 !fermata![FA]2 A2 | %14
 A2 d2 e3 c | A>G F>G A3 B | A4 A4 | A8 |] %18
V:3
"^3. Stand and a – dore!  how glorious  he        That dwells in bright e – ter – ni – ty!     We gaze, and we confound our sight," A4 F2 B2 | %1
 A2 d2 d2 c2 | d4 z2 A2 | d2 A2 B2 d2 | dc B2 !fermata!A2 z A | d2 d2 c2 A2 | B2 d2 e3 z | %7
"^3. Plunged in th'a–byss of dazzling light!  Great  God,  forgive  our  feeble  lays,    Sound out thine own eternal praise:      A" f2 e>f d2 g2 | %8
 f2 e2 !fermata!d2 z2 | d2 A>A A2 A2 | A2 Bc !fermata!d2 z d | e2 e2 e3 e | f2 f2 !fermata!f2 z A | %13
"^3. song so vast, a      theme so      high,    Calls   for      the   voice    that  tuned  the   sky.\n" B2 c2 !fermata!d2 e2 | %14
 f2 d2 c3 e | f>g a>g f3 e | d4 c4 | d8 |] %18
V:4
 D,4 D,2 G,2 | F,2 B,2 A,2 A,,2 | D,4 z2 D,2 | D,2 F,2 D,2 B,,2 | G,,2 E,2 !fermata!A,,2 z D, | %5
 D,2 D,2 A,2 D,2 | G,2 B,2 A,3 z | D2 A,>D, G,>F, E,2 | A,2 A,2 !fermata!D,2 z2 | %9
 D,2 D,>D, C,B,, A,,2 | D,2 D,2 !fermata!D,2 z D, | [A,,A,]2 [A,,A,]2 [A,,A,]3 [A,,A,] | %12
 [D,D]2 [D,D]2 !fermata![D,D]2 z D, | [B,,G,]2 [E,,E,]2 !fermata![D,,D,]2 [A,,A,]2 | %14
 [D,D]2 [B,,B,]2 [A,,A,]3 [A,,A,]/[G,,G,]/ | [F,,F,]>[E,,E,] [D,,D,]2 [D,,D,D]2 [G,,G,]2 | %16
 [A,,A,]4 [A,,A,]4 | %17
"^_________________________________________\nEdited by B. C. Johnston, 2016\n   1. Parts rearranged, 1-2-3-4 changed to 2-3-1-4.\n   2. Measure 7, \nCounter\n: B-A changed to B-B-A.\n   3. Measure 12, Counter written (missing in original)." [D,,D,]8 |] %18

